lib/svgs/sort-by-time.svg

<?xml version="1.0" encoding="UTF-8"?>
<svg width="17px" height="16px" viewBox="0 0 17 16" version="1.1" xmlns="http://www.w3.org/2000/svg" xmlns:xlink="http://www.w3.org/1999/xlink">
    <!-- Generator: sketchtool 51.3 (57544) - http://www.bohemiancoding.com/sketch -->
    <title>app/sort-by-time</title>
    <desc>Created with sketchtool.</desc>
    <defs></defs>
    <g id="Icons" stroke="none" stroke-width="1" fill="none" fill-rule="evenodd">
        <g id="Web" transform="translate(-340.000000, -552.000000)" fill="#000000" fill-rule="nonzero">
            <g id="app/sort-by-time" transform="translate(340.000000, 552.000000)">
                <path d="M13.177464,12.0330132 C11.8659549,13.3445254 9.73957551,13.3445254 8.42806457,12.0330138 C7.11655392,10.7215052 7.11655392,8.59512561 8.42806453,7.28361463 C9.73957539,5.97210413 11.865955,5.97210413 13.1774632,7.28361435 C13.4117776,7.51792911 13.7916766,7.51792941 14.0259913,7.28361502 C14.2603061,7.04930063 14.2603064,6.66940165 14.025992,6.43508688 C12.2458547,4.65494675 9.35967663,4.65494675 7.57953639,6.43508649 C5.79939654,8.21522684 5.79939654,11.1014049 7.57953667,12.8815422 C9.35967651,14.6616829 12.2458548,14.6616829 14.0259921,12.8815414 C15.8061327,11.101405 15.8061327,8.21522672 14.0259916,6.43508645 C13.7916769,6.20077193 13.4117779,6.20077202 13.1774634,6.43508665 C12.9431489,6.66940128 12.943149,7.04930026 13.1774636,7.28361479 C14.4889752,8.59512573 14.4889752,10.7215051 13.177464,12.0330132 L13.177464,12.0330132 L13.177464,12.0330132 L13.177464,12.0330132 Z M9.75039084,10.0079098 L9.75039084,7.84881891 C9.75039084,7.51744806 10.01902,7.24881891 10.3503908,7.24881891 C10.6817617,7.24881891 10.9503908,7.51744806 10.9503908,7.84881891 L10.9503908,10.0079098 L10.5882446,9.45706902 L12.3977753,10.2384267 C12.7019963,10.3697897 12.8421254,10.7229003 12.7107624,11.0271212 C12.5793994,11.3313422 12.2262888,11.4714713 11.9220678,11.3401083 L10.1125371,10.5587506 C9.89273065,10.4638379 9.75039084,10.2473326 9.75039084,10.0079098 Z M0.547058807,11.3774524 L4.652941,11.3774524 C4.95564688,11.3774524 5.19999981,11.6464524 5.19999981,11.9774524 C5.19999981,12.3084524 4.95564688,12.5764524 4.652941,12.5764524 L0.547058807,12.5764524 C0.245264698,12.5764524 0,12.3084524 0,11.9774524 C0,11.6464524 0.245264698,11.3774524 0.547058807,11.3774524 Z M4.99999993,7.80805245 L0.526586215,7.80805241 C0.235429843,7.80805241 0.0004,7.53905241 0.0004,7.20805241 C0.0004,6.87605241 0.235429843,6.60805241 0.526586215,6.60805241 L4.99999993,6.60805245 C5.29027933,6.60805245 5.52618615,6.87605245 5.52618615,7.20805245 C5.52618615,7.53905245 5.29027933,7.80805245 4.99999993,7.80805245 Z M15.4004,2.98335241 L0.6004,2.98335241 C0.2684,2.98335241 0.0004,2.71435241 0.0004,2.38335241 C0.0004,2.05135241 0.2684,1.78335241 0.6004,1.78335241 L15.4004,1.78335241 C15.7314,1.78335241 16.0004,2.05135241 16.0004,2.38335241 C16.0004,2.71435241 15.7314,2.98335241 15.4004,2.98335241 Z" id="Combined-Shape"></path>
            </g>
        </g>
    </g>
</svg>

<svg xmlns="http://www.w3.org/2000/svg" viewBox="0 0 17 16">
    <path d="M13.177 12.033a3.358 3.358 0 1 1 0-4.75.6.6 0 1 0 .849-.848 4.558 4.558 0 1 0-6.446 6.447 4.558 4.558 0 0 0 6.446-6.447.6.6 0 0 0-.849.849 3.358 3.358 0 0 1 0 4.749zM9.75 10.008v-2.16a.6.6 0 1 1 1.2 0v2.16l-.362-.55 1.81.78a.6.6 0 1 1-.476 1.102l-1.81-.781a.6.6 0 0 1-.362-.551zm-9.203 1.37h4.106c.303 0 .547.268.547.6 0 .33-.244.598-.547.598H.547c-.302 0-.547-.268-.547-.599 0-.33.245-.6.547-.6zM5 7.807H.527c-.292 0-.527-.269-.527-.6 0-.332.235-.6.527-.6H5c.29 0 .526.268.526.6 0 .331-.236.6-.526.6zm10.4-4.825H.6a.6.6 0 1 1 0-1.2h14.8a.6.6 0 1 1 0 1.2z"/>
</svg>
